X:63
T:BEWARRP4- The Bonny Moorhen
S:Hogg's Jacobite Relics, 1819
L:1/8
M:6/8
K:Em
E|
EAAB2A|GEEE3|GAG (BA) B|GDDD2D|GFG AGA|ABd~e2d|\
(BA) B dBA|GEEE2||\
(B/d/)|ede f2e|dBBB2d|ded fe(f/e/)|dAAA2A|BAB BAG|\
ABd (e2d)|(BA) B dBA|GEE2||]
